X: 3
T: Margaret's
R: waltz
M: 3/4
L: 1/8
K: Gmaj
|: G>E |D2- D>E G>A | B4 G>B | A>G E2 G2 | A4 (3AGE |
D2- D>E G>A | B>c d2 G>A | B4 (3ABA | G4 :|
B>c |d2 e2 f2 | g2 f2 g2 | e>d c2 e2 | d4 B>A |
G2- G>A Bc | d2 B2 d2 | e>d c2 (3BcB | A4 (3ABc |
d2 e2 f2 | g>G f>G e>G | d>G c>G B>G | A4 (3AGE |
D2 D>E G>A | B>d- d2 d>e | B4 (3ABA | G4 |]


Tune 1678	Setting 1678

